Origami/64x64/apps/gufw.svg

<svg width="64" height="64" version="1" xmlns="http://www.w3.org/2000/svg">
 <g transform="matrix(.14521477 0 0 .14745066 6.3945326 9.0029596)" style="opacity:.2">
  <path d="m25.232 41.855c-0.11807 0.4269-0.40348 0.78706-0.40348 1.2451 0 52.278 13.832 112.71 37.954 165.8 19.566 43.069 54.756 100.51 111.25 129.62 0.719 0.37 1.5004 0.55631 2.2864 0.55631s1.5674-0.18631 2.2864-0.55631c56.496-29.106 91.686-86.55 111.25-129.62 24.121-53.094 37.954-113.53 37.954-165.8 0-0.458-0.28541-0.81816-0.40348-1.2451-1.9514 49.319-15.291 104.49-37.55 153.49-19.567 43.069-54.757 100.51-111.25 129.62-0.719 0.37-1.5004 0.55631-2.2864 0.55631s-1.5674-0.18631-2.2864-0.55631c-56.49-29.11-91.681-86.55-111.25-129.62-22.257-48.99-35.596-104.17-37.548-153.48z"/>
 </g>
 <g transform="matrix(.14521477 0 0 .14745066 6.3945326 6.0027599)" style="fill:#7e97de">
  <path d="m324.48 51.943-146.49-51.658c-1.076-0.38-2.25-0.38-3.326 0l-146.49 51.658c-1.999 0.705-3.337 2.595-3.337 4.715 0 52.278 13.834 112.71 37.956 165.8 19.566 43.069 54.751 100.52 111.25 129.62 0.719 0.37 1.504 0.555 2.29 0.555s1.571-0.185 2.29-0.555c56.496-29.106 91.68-86.556 111.25-129.62 24.121-53.094 37.955-113.53 37.955-165.8 0-2.12-1.338-4.01-3.337-4.715z"/>
 </g>
 <g transform="matrix(.07920806 0 0 .07939605 18.032753 19.002062)" style="opacity:.2">
  <path d="m324.48 51.943-146.49-51.658c-1.076-0.38-2.25-0.38-3.326 0l-146.49 51.658c-1.999 0.705-3.337 2.595-3.337 4.715 0 52.278 13.834 112.71 37.956 165.8 19.566 43.069 54.751 100.52 111.25 129.62 0.719 0.37 1.504 0.555 2.29 0.555s1.571-0.185 2.29-0.555c56.496-29.106 91.68-86.556 111.25-129.62 24.121-53.094 37.955-113.53 37.955-165.8 0-2.12-1.338-4.01-3.337-4.715z"/>
 </g>
 <g transform="matrix(.07920806 0 0 .07939605 18.032753 18.002162)" style="fill:#ffffff">
  <path d="m324.48 51.943-146.49-51.658c-1.076-0.38-2.25-0.38-3.326 0l-146.49 51.658c-1.999 0.705-3.337 2.595-3.337 4.715 0 52.278 13.834 112.71 37.956 165.8 19.566 43.069 54.751 100.52 111.25 129.62 0.719 0.37 1.504 0.555 2.29 0.555s1.571-0.185 2.29-0.555c56.496-29.106 91.68-86.556 111.25-129.62 24.121-53.094 37.955-113.53 37.955-165.8 0-2.12-1.338-4.01-3.337-4.715z"/>
 </g>
 <g transform="matrix(.14521477 0 0 .14745066 6.3945326 6.0027599)" style="fill:#ffffff">
  <path transform="matrix(6.8863518,0,0,6.7819296,-44.035001,-40.710295)" d="m32 6.0039062c-0.081996 0-0.164191 0.0130174-0.242188 0.0410157l-21.273437 7.6171871c-0.289985 0.103994-0.484375 0.382733-0.484375 0.695313 0 0.271989 0.01718 0.552812 0.027344 0.830078 0.056685-0.238906 0.221928-0.441079 0.457031-0.525391l21.273437-7.6171871c0.155993-0.0559965 0.328383-0.0559965 0.484376 0l21.271484 7.6171871c0.235103 0.084312 0.400346 0.286485 0.457031 0.525391 0.010002-0.277266 0.027344-0.558089 0.027344-0.830078 0-0.31258-0.19439-0.591319-0.484375-0.695313l-21.271484-7.6171871c-0.077997-0.0279983-0.160192-0.0410157-0.242188-0.0410157z" style="opacity:.2"/>
 </g>
</svg>

<svg xmlns="http://www.w3.org/2000/svg" width="64" height="64" version="1">
 <g style="opacity:0.2" transform="matrix(0.14521477,0,0,0.14745066,6.3945326,9.0029596)">
  <path d="m 25.232,41.855 c -0.11807,0.4269 -0.40348,0.78706 -0.40348,1.2451 0,52.278 13.832,112.71 37.954,165.8 19.566,43.069 54.756,100.51 111.25,129.62 0.719,0.37 1.5004,0.55631 2.2864,0.55631 0.786,0 1.5674,-0.18631 2.2864,-0.55631 56.496,-29.106 91.686,-86.55 111.25,-129.62 24.121,-53.094 37.954,-113.53 37.954,-165.8 0,-0.458 -0.28541,-0.81816 -0.40348,-1.2451 -1.9514,49.319 -15.291,104.49 -37.55,153.49 -19.567,43.069 -54.757,100.51 -111.25,129.62 -0.719,0.37 -1.5004,0.55631 -2.2864,0.55631 -0.786,0 -1.5674,-0.18631 -2.2864,-0.55631 -56.49,-29.11 -91.681,-86.55 -111.25,-129.62 -22.257,-48.99 -35.596,-104.17 -37.548,-153.48 z"/>
 </g>
 <g style="fill:#7e97de" transform="matrix(0.14521477,0,0,0.14745066,6.3945326,6.0027599)">
  <path d="M 324.48,51.943 177.99,0.285 c -1.076,-0.38 -2.25,-0.38 -3.326,0 L 28.174,51.943 c -1.999,0.705 -3.337,2.595 -3.337,4.715 0,52.278 13.834,112.71 37.956,165.8 19.566,43.069 54.751,100.52 111.25,129.62 0.719,0.37 1.504,0.555 2.29,0.555 0.786,0 1.571,-0.185 2.29,-0.555 56.496,-29.106 91.68,-86.556 111.25,-129.62 24.121,-53.094 37.955,-113.53 37.955,-165.8 0,-2.12 -1.338,-4.01 -3.337,-4.715 z"/>
 </g>
 <g style="opacity:0.2" transform="matrix(0.07920806,0,0,0.07939605,18.032753,19.002062)">
  <path d="M 324.48,51.943 177.99,0.285 c -1.076,-0.38 -2.25,-0.38 -3.326,0 L 28.174,51.943 c -1.999,0.705 -3.337,2.595 -3.337,4.715 0,52.278 13.834,112.71 37.956,165.8 19.566,43.069 54.751,100.52 111.25,129.62 0.719,0.37 1.504,0.555 2.29,0.555 0.786,0 1.571,-0.185 2.29,-0.555 56.496,-29.106 91.68,-86.556 111.25,-129.62 24.121,-53.094 37.955,-113.53 37.955,-165.8 0,-2.12 -1.338,-4.01 -3.337,-4.715 z"/>
 </g>
 <g style="fill:#ffffff" transform="matrix(0.07920806,0,0,0.07939605,18.032753,18.002162)">
  <path d="M 324.48,51.943 177.99,0.285 c -1.076,-0.38 -2.25,-0.38 -3.326,0 L 28.174,51.943 c -1.999,0.705 -3.337,2.595 -3.337,4.715 0,52.278 13.834,112.71 37.956,165.8 19.566,43.069 54.751,100.52 111.25,129.62 0.719,0.37 1.504,0.555 2.29,0.555 0.786,0 1.571,-0.185 2.29,-0.555 56.496,-29.106 91.68,-86.556 111.25,-129.62 24.121,-53.094 37.955,-113.53 37.955,-165.8 0,-2.12 -1.338,-4.01 -3.337,-4.715 z"/>
 </g>
 <g style="fill:#ffffff" transform="matrix(0.14521477,0,0,0.14745066,6.3945326,6.0027599)">
  <path style="opacity:0.2" d="M 32 6.0039062 C 31.918004 6.0039062 31.835809 6.0169236 31.757812 6.0449219 L 10.484375 13.662109 C 10.19439 13.766103 10 14.044842 10 14.357422 C 10 14.629411 10.01718 14.910234 10.027344 15.1875 C 10.084029 14.948594 10.249272 14.746421 10.484375 14.662109 L 31.757812 7.0449219 C 31.913805 6.9889254 32.086195 6.9889254 32.242188 7.0449219 L 53.513672 14.662109 C 53.748775 14.746421 53.914018 14.948594 53.970703 15.1875 C 53.980705 14.910234 53.998047 14.629411 53.998047 14.357422 C 53.998047 14.044842 53.803657 13.766103 53.513672 13.662109 L 32.242188 6.0449219 C 32.164191 6.0169236 32.081996 6.0039062 32 6.0039062 z" transform="matrix(6.8863518,0,0,6.7819296,-44.035001,-40.710295)"/>
 </g>
</svg>
